X: 032244
T: Chenango HP
C: B.Black 12/07
N: 257
M: 4/4
Q: 1/4=160
L: 1/8
R: hornpipe
K: A
E| "A" AGAB cBAG |"D" Fddc dcBA | "E"GABc dedc | "Bm"BFAF "E"EFGE |
 "A" AGAB cBAG |"D" Fddc dcBA | "E"GABc "Bm" dcBA | "E7" GEFG "A" A3 :|
f |"A" ecAc ecag | "Bm" fdBd FBde | "F#m""F#m" fecB AFGA | "E"BcAG "D"F3f |
"A" ecAc ecag | "Bm" fdBd FBdf |"C#m7" ecBc "D"dfaf | "E7" edcB "A" A3 :|
